X:1988
T:Fishers Hornpipe. GHW.059
O:england
M:4/4
L:1/8
Q:180
S:George H.Watson,MS,Swanton Abbott,Norfolk,1850-1880
R:Hornpipe
A:Norfolk
K:D
(3ABc)|dAFA GBAG|FAFA GBAG|FDFD GEGE|FDFD E2 (3ABc)|
dAFA GBAG|FAFA GBAG|FAdf fdec|d2d2d2:|
|:(cd)|ecAc ecge|fdAd fdfd|ecAc ecgf|edcB A2A2|
BGDG BGdB|AFDF AFdA|BdcB AGFE|d2d2d2:|


